X: 34
T: Ossians Hall
R: reel
M: C|
L: 1/8
Z: 2012 John Chambers <jc:trillian.mit.edu>
B: J. Anderson "Budget of Strathspeys, Reels and Country Dances" (Early 1800s) p.3 #1
F: http://imslp.org/wiki/Anderson%27s_Budget_of_Strathspeys,_Reels_and_Country_Dances_(Various)
K: A
e |\
cAec fde=c | B=GBd g2(Bd) | cAeg fded | cAce a2e :|
(f/g/) |\
aecA cA=gd | B=GBd g2(B^g) | aecA ceae | cAce a2(ed) |
ceae fdec | dB=GB dgBd | cedf ecdB | cA (cd/e/) a2ed |]

%%sep 2 1 500
%%sep 1 1 500

